!!!!SEGMENT: pl-cz--ii-152--001_maader-ludwik--litaniae-lauretanae-kyrie.krn
!!!cenid: 17xx:958
!!!COM: Maader, Ludwik
!!!COM-rismID: pe30020328
!!!CDT: <1794->1798
!!!CNT:
!!!OTL: Litaniae Lauretanae - Kyrie
!!!PDT: 1784
!!!AGN: Sacred
!!!YEC: Copyright 2022 Narodowy Instytut Fryderyka Chopina (https://polishscores.org)
!!!YEM: License CC-BY-4.0 (https://creativecommons.org/licenses/by/4.0)
!!!SMS-siglum: PL-CZ
!!!SMS-shelfmark: II-152
!!!SMS-shelfwork: 001 W
!!!SMS-variant:
!!!SMS-altvar:
!!!NIFC-rismSourceID: 300000760
!!!NIFC-rismChildID: 300000762
!!!NIFC-islandoraID: pl-cz:32555
!!!URL-pdf-islandora: https://repozytorium.nifc.pl/islandora/object/pl-cz%3A32555/datastream/PDF/view
!!!URL-scan: https://polish.musicsources.pl/pl/lokalizacje/galeria/rekopisy/6766/1 @EN{Scan on Polish Music Sources Website} @PL{Skany w portalu Dziedzictwo Muzyki Polskiej w otwartym dostępie}
!!!IIIF:
!!!ONB-nifc: UWAGA: w okładce fragment innego utworu. Uwaga: Litaniae (Kyrie) i Salve Regina to osobne utwory
!!!AIN: 1 alto 3 empty 1 organ 1 tenor 2 violn 1 vox
!!!key:
**kern	**fba	**kern	**kern	**kern	**text	**kern	**text	**kern	**text	**kern	**text	**kern	**kern
*part9	*	*part8	*part7	*part6	*	*part5	*	*part4	*	*part3	*	*part2	*part1
*staff9	*	*staff8	*staff7	*staff6	*	*staff5	*	*staff4	*	*staff3	*	*staff2	*staff1
*Iorgan	*	*Ivioln	*Ivioln	*Iempty	*	*Itenor	*	*Ialto	*	*Ivox	*	*Iempty	*Iempty
*I"Organo.	*	*I"Violino IIdo.	*I"Violino Imo.	*I"Baſso	*	*I"Tenore	*	*I"Alto	*	*I"Canto	*	*I"Clarino IIdo in D#.	*I"Clarino Imo in D#.
*Iorgan	*	*Ivioln	*Ivioln	*Ibass	*	*Itenor	*	*Ialto	*	*Isoprn	*	*Iclrno	*Iclrno
*clefF4	*	*clefG2	*clefG2	*clefF4	*	*clefC4	*	*clefC3	*	*clefC1	*	*clefG2	*clefG2
*	*	*	*	*	*	*	*	*	*	*	*	*ITrd-1c-2	*ITrd-1c-2
*k[f#c#]	*	*k[f#c#]	*k[f#c#]	*k[f#c#]	*	*k[f#c#]	*	*k[c#f#]	*	*k[f#c#]	*	*k[f#c#]	*k[f#c#]
*D:	*	*D:	*D:	*D:	*	*D:	*	*D:	*	*D:	*	*D:	*D:
*M4/4	*	*M4/4	*M4/4	*M4/4	*	*M4/4	*	*M4/4	*	*M4/4	*	*M4/4	*M4/4
*met(c)	*	*met(c)	*met(c)	*met(c)	*	*met(c)	*	*met(c)	*	*met(c)	*	*met(c)	*met(c)
*2\right	*	*2\right	*2\right	*2\right	*	*2\right	*	*2\right	*	*2\right	*	*2\right	*2\right
=1	=1	=1	=1	=1	=1	=1	=1	=1	=1	=1	=1	=1	=1
!LO:TX:a:Bi:t=allo Andante	!	!LO:TX:a:Bi:t=allo Andante.	!LO:TX:a:Bi:t=Andante\n allo	!LO:TX:a:Bi:t=allo andante	!	!LO:TX:a:Bi:t=Andante allo.	!	!LO:TX:a:Bi:t=allo and:	!	!LO:TX:a:Bi:t=allo. Andante	!	!LO:TX:a:Bi:t=Andante.	!LO:TX:a:Bi:t=Andante
4D\	.	8.a/L	8.ff#\L	8D\	Kÿ-	8d\	Kÿ-	8a\	Kÿ-	8ff#\	Kÿ-	8.dd\L	8.ff#\L
.	.	.	.	8D\	-ri-	8d\	-ri-	8a\	-ri-	8ff#\	-ri-	.	.
.	.	16g/Jk	16gg\Jk	.	.	.	.	.	.	.	.	16ee\Jk	16gg\J
!	!	!	!	!	!	!	!	!	!	!	!	!LO:TX:t=P:problem=mixed beam	!
8r	.	8f#/L	8aa\L	8G\	-e	8c#\	-e	8a\	-e	8ee\	-e	8ff#\L	8aaL
8G\	4 2	8a/J	8cc#\J	8G\	e-	8c#\	e-	8a\	e-	8ee\	e-	8a/J	8eeJ
4F#\	.	16f#/LL	16dd\LL	8F#\	-lei-	8d\	-lei-	16f#\LL	-lei-	16dd\LL	-lei-	8dd\L	8ff#L
.	.	16e/J	16cc#\J	.	.	.	.	16e\JJ	.	16cc#\JJ	.	.	.
.	.	8f#/J	8dd\J	8F#\	-son	4A\	-son	4f#\	-son	4dd\	-son	8dd\J	8ff#J
8D\L	6	8r	8r	8D\	Chris-	.	.	.	.	.	.	4r	4r
16F#\L	.	8f#/	8a/	16F#\	-te	8d\	Chris-	8f#\	Chris-	8a\	Chris-	.	.
16D\JJ	.	.	.	16D\	e-	.	.	.	.	.	.	.	.
=2	=2	=2	=2	=2	=2	=2	=2	=2	=2	=2	=2	=2	=2
8G\L	.	16g/LL	(16b\LL	8G\L	-lei-	8d\	-te	8g\	-te	8b\	-te	4r	4r
.	.	16b/	16dd\	.	.	.	.	.	.	.	.	.	.
8F#\	6	16a/	16cc#\	8F#\J	.	8d\	e-	8f#\	e-	8a\	e-	.	.
.	.	16g/JJ	16b\JJ)	.	.	.	.	.	.	.	.	.	.
.	.	.	.	.	.	.	.	8qqf#/	.	8qqa/	.	.	.
8E\	7	8f#/L	8a/L	8E\L	.	8d\L	-lei-	4e\	-lei-	4g\	-lei-	8ff#\L	8aa\L
8A\J	7	8e/J	8g/J	8A\J	.	8c#\J	.	.	.	.	.	8ee\J	8gg\J
.	.	8qqe/	8qqg/	.	.	.	.	.	.	.	.	.	.
!	!	!	!	!LO:LB:g=original	!	!	!	!	!	!	!	!	!
16D\LL	.	4d/	4f#/	4D\	-son	8d\	-son	4d\	-son	4f#\	-son	4dd\	4ff#\
16d\	.	.	.	.	.	.	.	.	.	.	.	.	.
16c#\	.	.	.	.	.	16A\	Ky-	.	.	.	.	.	.
16d\JJ	.	.	.	.	.	16A\	-ri-	.	.	.	.	.	.
!	!	!	!	!	!	!	!	!	!LO:MO:mod=San-	!	!	!	!
4D\	.	16d/LL	(16f#/LL	8d\	Kÿ-	8d\	-e	4a\	Sanc-	8ff#\	Kÿ-	4dd\	4ff#\
.	.	16f#/	16a/	.	.	.	.	.	.	.	.	.	.
.	.	16f#/	16dd/	8d\	-ri-	8d\	e-	.	.	8ff#\	-ri-	.	.
.	.	16dd/JJ	16ff#/JJ)	.	.	.	.	.	.	.	.	.	.
=3	=3	=3	=3	=3	=3	=3	=3	=3	=3	=3	=3	=3	=3
!	!	!	!	!	!	!	!	!	!	!LO:LB:g=original	!	!	!
.	.	.	.	.	.	.	.	.	.	8qqee/	.	.	.
.	.	8qqdd/	8qqff#/	.	.	.	.	.	.	8qqee/	.	.	.
!	!	!	!	!	!	!LO:LB:g=original	!	!LO:LB:g=original	!	!	!	!	!
8A\L	5	8cc#\L	8ee\L	4A\	-e	4c#\	-lei-	2a\	-cta	4ee\	-e	2a/	2ee\
8A\	.	8cc#\J	8ee\J	.	.	.	.	.	.	.	.	.	.
8c#\	.	16a\LL	16a\LL	8c#\L	.	8c#\L	.	.	.	8ee\L	e-	.	.
.	.	16a\	16cc#\	.	.	.	.	.	.	.	.	.	.
8A\J	.	16cc#\	16ee\	8A\J	.	8e\J	.	.	.	8gg\J	.	.	.
.	.	16ee\JJ	16gg\JJ	.	.	.	.	.	.	.	.	.	.
!LO:TX:t=P:problem=mixed beam	!	!	!	!	!	!	!	!	!	!	!	!	!
.	.	8qqee/	8qqgg/	.	.	8qqd/	.	.	.	8qqee/	.	.	.
8d\L	.	8dd\L	8ff#\L	8d\	lei-	4d\	-son	2a\	Ma-	4ff#\	-lei-	2dd\	2ff#\
8D/J	.	8dd\J	8ff#\J	8D/	-son	.	.	.	.	.	.	.	.
8F#\L	.	16dd\LL	16dd\LL	8F#\L	e-	4f#\	Pa-	.	.	4dd\	-son	.	.
.	.	16dd\	16ff#\	.	.	.	.	.	.	.	.	.	.
8D\J	.	16dd\	16aa\	8D\J	.	.	.	.	.	.	.	.	.
.	.	16dd\JJ	16ddd\JJ	.	.	.	.	.	.	.	.	.	.
=4	=4	=4	=4	=4	=4	=4	=4	=4	=4	=4	=4	=4	=4
*	*	*tremolo	*	*	*	*	*	*	*	*	*	*	*
!LO:LB:g=original	!	!	!LO:LB:g=original	!	!	!	!	!	!	!	!	!	!
.	.	.	8qccc#/	.	.	.	.	.	.	.	.	.	.
8G\L	.	16dd\LL	8bb\L	8G\L	-lei-	8g\	-ter	2b\	-ri-	2.dd\	Chris-	2d/	2dd\
.	.	16dd\	.	.	.	.	.	.	.	.	.	.	.
8D\	.	16dd\	8bb\J	8D\J	.	8g\	de	.	.	.	.	.	.
.	.	16dd\JJ	.	.	.	.	.	.	.	.	.	.	.
8G\	.	16dd\LL	16bb\LL	8G\L	.	8g\	Cae-	.	.	.	.	.	.
.	.	16dd\	16ddd\	.	.	.	.	.	.	.	.	.	.
8D\J	.	16dd\	16ccc#\	8D\J	.	8g\	-lis	.	.	.	.	.	.
.	.	16dd\JJ	16bb\JJ	.	.	.	.	.	.	.	.	.	.
*	*	*Xtremolo	*	*	*	*	*	*	*	*	*	*	*
.	.	.	8qqbb/	.	.	.	.	.	.	.	.	.	.
!	!	!LO:LB:g=original	!	!	!	!	!	!	!	!	!	!	!
8F#\L	.	16dd\LL	8aa\L	8F#\L	.	8f#\	De-	2a\	-a	.	.	2d/	2dd\
.	.	16dd\	.	.	.	.	.	.	.	.	.	.	.
8D\	.	16dd\	8aa\J	8D\J	.	8f#\	-us	.	.	.	.	.	.
.	.	16dd\JJ	.	.	.	.	.	.	.	.	.	.	.
8F#\	.	16f#/LL	16a\LL	8F#\	.	8f#\	mi-	.	.	8dd\L	.	.	.
.	.	16a/	16dd\	.	.	.	.	.	.	.	.	.	.
8D\J	.	16dd/	16ff#\	8D\	-son	8d\	-se-	.	.	8ff#\J	.	.	.
.	.	16ff#/JJ	16aa\JJ	.	.	.	.	.	.	.	.	.	.
=5	=5	=5	=5	=5	=5	=5	=5	=5	=5	=5	=5	=5	=5
.	.	8qqff#/	8qqaa/	.	.	.	.	8qqa	.	8qqee/	.	.	.
8r	.	8ee\	8gg\	8r	.	8B\	-re-	4g\	o-	4.ee\	-te	8r	8r
8E\L	.	4ee\	4gg\	8E\	Pa-	8c#\	-re	.	.	.	.	4r	4r
8C#\	.	.	.	8C#/	-ter	8A\	no-	8g\	-ra	.	.	.	.
8D\J	.	8dd\	8ff#\	8D/	de	8A\	-bis	8f#\	pro-	8dd\	.	8r	8ff#\L
.	.	8qqdd/	.	.	.	.	.	8qqf#/	.	8qqdd/	.	.	.
8A\L	.	8cc#\L	16ff#\LL	8A\	Cae-	8A\	fi-	4e\	-no-	4cc#\	au-	8dd\L	8ff#\
.	.	.	16ee\	.	.	.	.	.	.	.	.	.	.
8G\	4 2	16cc#\L	16ee\	8G\	-lis	16A\	-li	.	.	.	.	8dd\	8ee\J
.	.	16a\JJ	16cc#\JJ	.	.	16A\	Re-	.	.	.	.	.	.
8F#\	6	16dd\LL	16dd\LL	8F#\	De-	8A\	-dem-	4f#\	-bis	4dd\	-di	8a\J	4r
.	.	16a\	16a\	.	.	.	.	.	.	.	.	.	.
8D\J	.	16dd\	16ff#\	8D\	-us	8A\	-ptor	.	.	.	.	8r	.
.	.	16ff#\JJ	16aa\JJ	.	.	.	.	.	.	.	.	.	.
=6	=6	=6	=6	=6	=6	=6	=6	=6	=6	=6	=6	=6	=6
!	!	!	!	!LO:LB:g=original	!	!LO:LB:g=original	!	!	!	!	!	!LO:LB:g=original	!
.	.	8qqff#/	8qqaa/	.	.	.	.	.	.	.	.	.	.
8r	.	8ee\	8gg\	8r	.	8c#\	mun-	8a\	Ma-	8ee\	nos	4r	4r
8AA/L	.	4ee\	4gg\	16AA/	mi-	4e\	.	16a\	-ter	4gg\	Chris-	.	.
.	.	.	.	16AA/	-se-	.	.	16a\	di-	.	.	.	.
8C#/	.	.	.	8C#/	-re-	.	.	8a\	-vi-	.	.	8r	8r
8D/J	.	8dd\	8ff#\	8D/	-re	8d\	-di	8a\	-na	8ff#\	.	8dd\L	8ff#\
!LO:TX:t=P:problem=mixed beam	!	!	!LO:TX:a:t=t	!	!	!	!	!	!	!	!	!	!
8A\L	6 4	8dd\L	8ff#\L	8A\	no-	8d\	De-	8.a\	gra-	8ff#\L	-te	8dd\	8ff#\L
8AA/J	5 3	8cc#\J	8ee\J	8AA/	-bis	8c#\	-us	.	.	8ee\J	.	8a\J	8ee\J
.	.	.	.	.	.	.	.	16a\	-ti-	.	.	.	.
4C#/	.	4ee\	4gg\	8C#/	mi-	8c#\	mi-	4a\	-ae	4ee\	ex-	4r	4r
.	.	.	.	8C#/	-se-	8e\	-se-	.	.	.	.	.	.
=7	=7	=7	=7	=7	=7	=7	=7	=7	=7	=7	=7	=7	=7
*	*	*Xtuplet	*Xtuplet	*	*	*	*	*	*	*	*	*	*
!	!	!LO:TX:t=P:problem=klamra łukowa, kropka zamiast numeru	!LO:TX:t=P:problem=klamra łukowa, kropka zamiast numeru	!	!	!	!	!LO:LB:g=original	!	!LO:LB:g=original	!	!	!
8D\L	.	24dd\LL	24ff#\LL	8D\	-re-	8d\	-re-	8a\	o-	8ff#\L	-au-	4r	4r
.	.	24cc#\	24ee\	.	.	.	.	.	.	.	.	.	.
.	.	24dd\JJ	24ff#\JJ	.	.	.	.	.	.	.	.	.	.
!	!	!LO:TX:t=P:problem=klamra łukowa, kropka zamiast numeru	!LO:TX:t=P:problem=klamra łukowa, kropka zamiast numeru	!	!	!	!	!	!	!	!	!	!
.	.	.	8qqaa/	.	.	.	.	.	.	.	.	.	.
16B\L	.	24b/LL	24gg\LL	16B\LL	-re	8d\	-re	16b\	-ra	8gg\J	.	.	.
.	.	24a/	24ff#\	.	.	.	.	.	.	.	.	.	.
16G\JJ	.	.	.	16G\JJ	.	.	.	16b\	pro-	.	.	.	.
.	.	24g/JJ	24ee\JJ	.	.	.	.	.	.	.	.	.	.
!LO:TX:t=P:problem=mixed beam	!	!	!	!LO:TX:t=P:problem=mixed beam	!	!	!	!	!	!	!	!	!
8A\L	.	8f#/L	8dd\L	8A\L	no-	8d\L	no-	4a\	-no-	8ff#\	.	8dd\L	8ff#\L
8AA/J	.	8e/J	8cc#\J	8AA/J	-bis	8c#\J	.	.	.	8ee\	-di	8a\J	8ee\J
*tremolo	*	*	*	*	*	*	*	*	*	*	*	*	*
!	!	!	!LO:TX:t=P:problem=mixed beam	!	!	!	!	!	!	!	!	!	!
8D\L	.	16f#/LL	16dd\LL	8D\	San-	4d\	-bis	2a\	-bis	2ff#\	nos	16f#|/	16dd|\LL
.	.	16a/	16a/	.	.	.	.	.	.	.	.	32A'/LLL	32a|\L
.	.	.	.	.	.	.	.	.	.	.	.	32A'/JJJ	32a|\JJJ
8D\	.	16a/	16a/	8D\	-cta	.	.	.	.	.	.	16A'/	16a|\
.	.	16a/JJ	16a/JJ	.	.	.	.	.	.	.	.	16r	16r
*	*	*tremolo	*	*	*	*	*	*	*	*	*	*	*
!	!	!	!LO:TX:t=P:problem=mixed beam	!	!	!	!	!	!	!	!	!	!
8D\	.	16a/LL	16ff#\LL	8D\	Vir-	8d\	San-	.	.	.	.	4r	4r
.	.	16a/	16a/	.	.	.	.	.	.	.	.	.	.
8D\J	.	16a/	16aa\	8D\	-go-	8d\	-cta	.	.	.	.	.	.
.	.	16a/JJ	16a/JJ	.	.	.	.	.	.	.	.	.	.
*Xtremolo	*	*	*	*	*	*	*	*	*	*	*	*	*
=8	=8	=8	=8	=8	=8	=8	=8	=8	=8	=8	=8	=8	=8
!	!	!	!LO:LB:g=original	!	!	!	!	!	!	!	!	!	!
!	!	!	!LO:TX:t=P:problem=mixed beam	!	!	!	!	!	!	!	!	!	!
8E\L	.	16a/LL	16gg\LL	8E\	-Vir-	8e\	De-	4a\	Ma-	2gg\	Pa-	16r	16r
.	.	16a/	16a/	.	.	.	.	.	.	.	.	32A'/LLL	32a|>|/LLL
.	.	.	.	.	.	.	.	.	.	.	.	32A'/JJJ	32a|>|/JJJ
8E\	.	16a/	16a/	8E\	-gi-	8e\	-i	.	.	.	.	16A'/	16a|>|/
.	.	16a/	16a/JJ	.	.	.	.	.	.	.	.	16r	16r
!	!	!	!LO:TX:t=P:problem=mixed beam	!	!	!	!	!	!	!	!	!	!
8C#\	.	16a/	16ee\LL	8C#/	-num	8e\	ge-	8a\	-ter	.	.	4r	4r
.	.	16a/	16a/	.	.	.	.	.	.	.	.	.	.
8C#\J	.	16a/	16gg\	8C#/	o-	8e\	-ni-	8a\	a-	.	.	.	.
.	.	16a/JJ	16a/JJ	.	.	.	.	.	.	.	.	.	.
!	!	!	!LO:TX:t=P:problem=mixed beam	!	!	!	!	!	!	!	!	!	!
8D\L	.	16a/LL	16ff#\LL	4D\	-ra	4d\	-trix	8a\	-ma-	4ff#\	-ter	16r	16r
.	.	16a/	16a/	.	.	.	.	.	.	.	.	32A'/LLL	32a|>/LLL
.	.	.	.	.	.	.	.	.	.	.	.	32A'/JJJ	32a|>/JJJ
8D\	.	16a/	16a/	.	.	.	.	8a\	-bi-	.	.	16A/	16a|>/
.	.	16a/	16a/JJ	.	.	.	.	.	.	.	.	16r	16r
!	!	!	!LO:TX:t=P:problem=mixed beam	!	!	!	!	!	!	!	!	!	!
8F#\	.	16a/	16ff#\LL	4F#\	pro-	4d\	o-	4a\	-lis	4ff#\	de	4r	4r
.	.	16a/	16a/	.	.	.	.	.	.	.	.	.	.
8F#\J	.	16a/	16aa\	.	.	.	.	.	.	.	.	.	.
.	.	16a/JJ	16a/JJ	.	.	.	.	.	.	.	.	.	.
=9	=9	=9	=9	=9	=9	=9	=9	=9	=9	=9	=9	=9	=9
!LO:LB:g=original	!	!	!LO:TX:t=P:problem=mixed beam	!LO:LB:g=original	!	!LO:LB:g=original	!	!	!	!	!	!	!
8E\L	.	16a/LL	16gg\LL	4E\	-no-	8e\	-ra	8a\	Ma-	4gg\	Cae-	16r	16r
.	.	16a/	16a/	.	.	.	.	.	.	.	.	32A'/LLL	32a|>/LLL
.	.	.	.	.	.	.	.	.	.	.	.	32A'/JJJ	32a|>/JJJ
8E\	.	16a/	16a/	.	.	8e\	pro-	8a\	-ter	.	.	16A'/	16a|>/
.	.	16a/	16a/JJ	.	.	.	.	.	.	.	.	16r	16r
!	!	!	!LO:TX:t=P:problem=mixed beam	!	!	!	!	!	!	!	!	!	!
8C#\	.	16a/	16ee\LL	4C#\	.	8e\	-no-	8a\	ad-	4gg\	-lis	4r	4r
.	.	16a/	16a/	.	.	.	.	.	.	.	.	.	.
8C#\J	.	16a/	16gg\	.	.	8e\	-bis	8a\	-mi-	.	.	.	.
.	.	16a/JJ	16a/JJ	.	.	.	.	.	.	.	.	.	.
*	*	*Xtremolo	*	*	*	*	*	*	*	*	*	*	*
!	!	!	!LO:TX:t=P:problem=mixed beam	!	!	!	!	!	!	!	!	!	!
8D\L	.	16a/LL	16ff#\LL	8D\	-bis	8d\L	Ma-	8a\	-ra-	8ff#\L	de-	16r	16r
.	.	16a/	16f#/	.	.	.	.	.	.	.	.	32f#'/LLL	32f#|>/LLL
.	.	.	.	.	.	.	.	.	.	.	.	32f#'/JJJ	32f#|>/JJJ
8B\	.	16f#/	16f#/	8B\	Ma-	8B\J	.	8f#\	-bi-	8dd\J	.	16f#'/	16f#|>/
.	.	16f#/JJ	16f#/JJ	.	.	.	.	.	.	.	.	16r	16r
*	*	*tremolo	*	*	*	*	*	*	*	*	*	*	*
!	!	!	!LO:TX:t=P:problem=mixed beam	!	!	!	!	!	!	!	!	!	!
8B\	.	16f#/LL	16dd\LL	8B\	-ter	8B\	-ter	4f#\	-lis	4dd\	-us	4r	4r
.	.	16f#/	16f#/	.	.	.	.	.	.	.	.	.	.
8B\J	.	16f#/	16ff#\	8B\	in	8d\	pu-	.	.	.	.	.	.
.	.	16f#/JJ	16f#/JJ	.	.	.	.	.	.	.	.	.	.
=10	=10	=10	=10	=10	=10	=10	=10	=10	=10	=10	=10	=10	=10
!	!	!LO:LB:g=original	!LO:TX:t=P:problem=mixed beam	!	!	!	!	!LO:LB:g=original	!	!	!	!LO:LB:g=original	!LO:LB:g=original
8c#\L	x 6\	16f#/LL	16ee\LL	4c#\	vi-	8c#\	-riſ-	4f#\	o-	4ee\	mi-	16r	16r
.	.	16f#/	16f#/	.	.	.	.	.	.	.	.	32f#'>/LLL	32f#|>/LLL
.	.	.	.	.	.	.	.	.	.	.	.	32f#'>/JJJ	32f#|>/JJJ
8c#\	.	16f#/	16f#/	.	.	8c#\	-si-	.	.	.	.	16f#|>/	16f#|>/
.	.	16f#/	16f#/JJ	.	.	.	.	.	.	.	.	16r	16r
!	!	!	!LO:TX:t=P:problem=mixed beam	!	!	!	!	!	!	!	!	!	!
8A#X\	6 5	16f#/	16cc#\LL	4A#X\	-o-	4c#\	-ma	8f#\	-ra	4ee\	-se-	4r	4r
.	.	16f#/	16f#/	.	.	.	.	.	.	.	.	.	.
8A#\J	.	16f#/	16ee\	.	.	.	.	8f#\	pro-	.	.	.	.
.	.	16f#/JJ	16f#/JJ	.	.	.	.	.	.	.	.	.	.
*	*	*Xtremolo	*	*	*	*	*	*	*	*	*	*	*
!	!	!	!LO:TX:t=P:problem=mixed beam	!	!	!	!	!	!	!	!	!	!
8B\L	.	16f#/LL	16dd\LL	8B\	-la-	8B\L	Ma-	8f#\L	-no-	8dd\L	-re-	16r	16r
.	.	16f#/	16d/	.	.	.	.	.	.	.	.	32d'/LLL	32d|>/LLL
.	.	.	.	.	.	.	.	.	.	.	.	32d'/JJJ	32d|>/JJJ
8G\	x 5	16d/	16d/	8G\	-ta	8G\J	.	8d\J	.	8b\J	.	16d'/	16d/
.	.	16d/JJ	16d/JJ	.	.	.	.	.	.	.	.	16r	16r
*	*	*tremolo	*	*	*	*	*	*	*	*	*	*	*
!	!	!	!LO:TX:t=P:problem=mixed beam	!	!	!	!	!	!	!	!	!	!
8G\	.	16d/LL	16b\LL	4G\	Ma-	8G\	-ter	4d\	-bis	4b\	-re	4r	4r
.	.	16d/	16d/	.	.	.	.	.	.	.	.	.	.
8G\J	.	16d/	16dd\	.	.	8B\	Caſ-	.	.	.	.	.	.
.	.	16d/JJ	16d/JJ	.	.	.	.	.	.	.	.	.	.
=11	=11	=11	=11	=11	=11	=11	=11	=11	=11	=11	=11	=11	=11
8A\L	x n	16d/LL	16ccn\LL	8A\	-ter	8A\	-tiſ-	4d\	Vi-	4ccn\	no-	16r	16r
.	.	16d/	16d/	.	.	.	.	.	.	.	.	32d'/LLL	32d|>/LLL
.	.	.	.	.	.	.	.	.	.	.	.	32d'/JJJ	32d|>/JJJ
8A\	.	16d/	16d/	8A\	in-	8A\	si-	.	.	.	.	16d'/	16d|>/
.	.	16d/	16d/JJ	.	.	.	.	.	.	.	.	16r	16r
8F#\	.	16d/	16a\LL	8F#\	-te-	4A\	-ma	4d\	-rgo	4cc\	-bis	4r	4r
.	.	16d/	16d/	.	.	.	.	.	.	.	.	.	.
8F#\J	.	16d/	16cc\	8F#\	-me-	.	.	.	.	.	.	.	.
.	.	16d/JJ	16d/JJ	.	.	.	.	.	.	.	.	.	.
*	*	*Xtremolo	*	*	*	*	*	*	*	*	*	*	*
!	!	!	!LO:LB:g=original	!	!	!	!	!	!	!	!	!	!
8G\L	.	16b\LL	16b\LL	8G\	-ra-	8G\L	o-	(8d\L	po-	8b\L	San-	2r	2r
.	.	16a\	16a\	.	.	.	.	.	.	.	.	.	.
8G\	.	16b\	16b\	8G\	-ta	8B\J	.	8g\J)	.	8dd\J	.	.	.
.	.	16dd\JJ	16dd\JJ	.	.	.	.	.	.	.	.	.	.
!	!	!	!LO:SIC:v:o=16cc\LL	!	!	!	!	!	!	!	!	!	!
8A\	.	16cc#\LL	16cc#\LL	4A\	o-	8A\L	.	(8e\L	-tens	8cc#X\L	-cta	.	.
.	.	16b\	16b\	.	.	.	.	.	.	.	.	.	.
8A\J	.	16cc#\	16cc\	.	.	8c#\J	.	8a\J)	.	8ee\J	.	.	.
.	.	16ee\JJ	16ee\JJ	.	.	.	.	.	.	.	.	.	.
!LO:TX:t=P:problem=skreślony takt	!	!	!	!	!	!	!	!	!	!	!	!	!
=12	=12	=12	=12	=12	=12	=12	=12	=12	=12	=12	=12	=12	=12
!	!	!	!	!LO:LB:g=original	!	!LO:LB:g=original	!	!	!	!LO:LB:g=original	!	!	!
8B\L	.	16dd\LL	16dd\LL	4B\	-ra	8B\L	.	(8f#\L	Vi-	8dd\L	Tri-	00r	00r
.	.	16cc#\	16cc#\	.	.	.	.	.	.	.	.	.	.
8B\	.	16dd\	16dd\	.	.	8d\J	.	8b\J)	.	8ff#\J	.	.	.
.	.	16ff#\JJ	16ff#\JJ	.	.	.	.	.	.	.	.	.	.
8c#\	.	16ee\LL	16ee\LL	4c#\	pro-	8c#\L	-ra	(8g\L	-rgo	8ee\	-ni-	.	.
.	.	16dd\	16dd\	.	.	.	.	.	.	.	.	.	.
8c#\J	.	16ee\	16ee\	.	.	8e\J	pro	8cc#\J)	.	8gg\	-tas	.	.
.	.	16gg\JJ	16gg\JJ	.	.	.	.	.	.	.	.	.	.
4d\	.	16ff#\LL	16ff#\LL	4d\	-no-	4d\	no-	4a\	Cle-	8ff#\	u-	.	.
.	.	16aa\	16aa\	.	.	.	.	.	.	.	.	.	.
.	.	16bb\	16bb\	.	.	.	.	.	.	8ff#\	-nus	.	.
.	.	16ccc#\JJ	16ccc#\JJ	.	.	.	.	.	.	.	.	.	.
4D\	.	16ddd\LL	16ddd\LL	4D\	-bis	4d\	-bis	4a\	-mens	8ff#\	De-	.	.
.	.	16ccc#\	16ccc#\	.	.	.	.	.	.	.	.	.	.
.	.	16bb\	16bb\	.	.	.	.	.	.	8ff#\	-us	.	.
.	.	16aa\JJ	16aa\JJ	.	.	.	.	.	.	.	.	.	.
=13	=13	=13	=13	=13	=13	=13	=13	=13	=13	=13	=13	=13	=13
!LO:LB:g=original	!	!	!	!	!	!	!	!	!	!	!	!	!
8G\L	.	16gg\LL	16bb\LL	8G\L	o-	8g\	Vir-	4b\	o-	8dd\	mi-	.	.
.	.	16bb\	16ddd\	.	.	.	.	.	.	.	.	.	.
8D\	.	16aa\	16ccc#\	8D\J	.	8g\	-go	.	.	8dd\	-se-	.	.
.	.	16gg\JJ	16bb\JJ	.	.	.	.	.	.	.	.	.	.
.	.	8qqgg/	8qqbb/	.	.	.	.	.	.	.	.	.	.
8F#\	.	8ff#\L	8aa\L	8F#\	-ra	8f#\	pru-	8a\	-ra	8dd\	-re-	.	.
8D\J	.	8ff#\J	8aa\J	8D\	pro-	8f#\	-den-	8a\	pro-	8dd\	-re	.	.
8E\L	.	16ee\LL	16gg\LL	8E\L	-no-	8e\	-tiſ-	4a\	-no-	4cc#\	no-	.	.
.	.	16gg\	16bb\	.	.	.	.	.	.	.	.	.	.
8A\J	.	16ff#\	16aa\	8A\J	.	8e\	-si-	.	.	.	.	.	.
.	.	16ee\JJ	16gg\JJ	.	.	.	.	.	.	.	.	.	.
.	.	8qqee/	8qqgg/	.	.	.	.	.	.	.	.	.	.
4D\	.	8dd\L	8ff#\L	4D\	-bis	8f#\	-ma	8a\	-bis	4dd\	-bis	.	.
.	.	8dd\J	8ff#\J	.	.	8A/	o-	8f#\	Vas	.	.	.	.
=14	=14	=14	=14	=14	=14	=14	=14	=14	=14	=14	=14	=14	=14
!	!	!	!	!	!	!	!	!LO:LB:g=original	!	!	!	!	!
*tremolo	*	*	*	*	*	*	*	*	*	*	*	*	*
.	.	.	8qff#/	.	.	.	.	.	.	.	.	.	.
8G\L	x 6	8b\	8ee\	8G\	Vir-	8B\	-ra	4g\	ho-	2ee\	Ma-	.	.
8G\	.	4b\	4ee\	8G\	-go	8B\	pro-	.	.	.	.	.	.
8G\	.	.	.	8G\	ve-	8B\	-no-	4g\	-no-	.	.	.	.
8G\J	.	4b\	16gg\LL	8G\	-ne-	8B\	-bis	.	.	.	.	.	.
.	.	.	16ff#\JJ	.	.	.	.	.	.	.	.	.	.
.	.	.	8qff#/	.	.	.	.	.	.	.	.	.	.
8G\L	.	.	8ee\	2G\	-ran-	4B\	Vir-	4g\	-ra-	2ee\	-ter	.	.
8G\	.	4b\	4ee\	.	.	.	.	.	.	.	.	.	.
8G\	.	.	.	.	.	8B\	-go	4g\	-bi-	.	.	.	.
8G\J	.	8b\	16gg\LL	.	.	8B\	fi-	.	.	.	.	.	.
.	.	.	16ff#\JJ	.	.	.	.	.	.	.	.	.	.
*Xtremolo	*	*	*	*	*	*	*	*	*	*	*	*	*
=15	=15	=15	=15	=15	=15	=15	=15	=15	=15	=15	=15	=15	=15
!	!	!LO:LB:g=original	!	!	!	!LO:LB:g=original	!	!	!	!	!	!	!
4G\	.	4.b\	16ee\LL	4G\	-da	4B\	-de-	2g\	-le	4ee\	Chris-	.	.
.	.	.	16ff#\	.	.	.	.	.	.	.	.	.	.
.	.	.	16gg\	.	.	.	.	.	.	.	.	.	.
.	.	.	16aa\JJ	.	.	.	.	.	.	.	.	.	.
8r	.	.	16bb\LL	8r	.	4B\	-lis	.	.	4ee\	-ti	.	.
.	.	.	16gg\	.	.	.	.	.	.	.	.	.	.
8G\	.	8b\	16ff#\	8G\	Vi[r]-	.	.	.	.	.	.	.	.
.	.	.	16ee\JJ	.	.	.	.	.	.	.	.	.	.
.	.	.	8qdd/	.	.	.	.	.	.	.	.	.	.
8A\L	.	8a/L	8cc#\L	8A\L	-go	8c#\	o-	4g\	o-	4ee\	o-	.	.
8G\	4 2	8e/	16b\L	8G\J	.	16B\LL	.	.	.	.	.	.	.
.	.	.	16a\JJ	.	.	16A\JJ	.	.	.	.	.	.	.
8F#\	x 6	8f#/	8dd\L	8F#\	prae-	8d\	-ra	8a\	-ra	8ff#\	-ra	.	.
8G\J	.	8g/J	8ee\J	8G\	-di-	8B\	pro-	8g\	pro-	8ee\	pro-	.	.
=16	=16	=16	=16	=16	=16	=16	=16	=16	=16	=16	=16	=16	=16
!LO:TX:t=P:problem=mixed beam	!	!	!LO:LB:g=original	!LO:LB:g=original	!	!	!	!	!	!	!	!	!
8A\L	6 4	4f#/	4dd\	4A\	-can-	4A\	-no-	2e\	-no-	4dd\	-no-	4ff#\	4ff#\
8A\	5 3	.	.	.	.	.	.	.	.	.	.	.	.
!	!	!	!LO:TX:a:t=t	!	!	!	!	!	!	!	!	!	!
8AA/	.	4e/	4cc#\	4AA/	.	4A\	-bis	.	.	4cc#\	.	4a/	4ee\
8AA/J	.	.	.	.	.	.	.	.	.	.	.	.	.
!	!	!	!	!	!	!	!	!	!	!LO:LB:g=original	!	!LO:TX:t=P:problem=mixed beam	!
8D\L	.	8f#/L	8dd\L	8D\	-da	8A\	Cau-	8f#\	-bis	8dd\	-bis	8f#/L	8dd\L
8d\	.	8a/	8ff#\	8d\	o-	8d\	-ſa	8a\	Tur-	8ff#\	Ma-	8dd\	8ff#\
8d\	.	8a/	8ff#\	8d\	-ra	8d\L	nos-	8a\	-ris	4ff#\	-ter	8dd\	8ff#\
8d\J	.	8a/J	8ff#\J	8d\	pro	8f#\J	.	8a\	e-	.	.	8dd\J	8ff#\J
=17	=17	=17	=17	=17	=17	=17	=17	=17	=17	=17	=17	=17	=17
4c#\	x 6	4a/	4ee\	4c#\	no-	4c#\	-tra	4a\	-bur-	8ee\	Cre-	4a/	4ee\
.	.	.	.	.	.	.	.	.	.	8ee\	-a-	.	.
4c#\	x 6\	4a#X/	4ee\	4c#\	-bis	8c#\L	Lae-	4a#X\	-ne-	8ee\	-to-	4r	4r
.	.	.	.	.	.	8e\J	.	.	.	8ee\	-ris	.	.
4B\	.	8b/L	8dd\L	8B\	Spe-	4f#\	-ti-	4b\	-a	8dd\	Ma-	2r	2r
.	.	16e/L	16cc#\L	8B\	-cu-	.	.	.	.	16cc#\LL	-ter	.	.
.	.	16f#/JJ	16dd\JJ	.	.	.	.	.	.	16dd\JJ	.	.	.
4E\	65	8e/L	8cc#\L	8E\	-lum	4G/	-ti-	4e\	o-	8cc#\	Sal-	.	.
.	.	8g/J	8b\J	8E\	Jus-	.	.	.	.	8b\	-va-	.	.
=18	=18	=18	=18	=18	=18	=18	=18	=18	=18	=18	=18	=18	=18
8F#\L	x #	4f#/	4a#X\	8F#\	-ti-	4F#/	-ae	4c#\	-ra	4a#X\	-to-	8r	8r
16E\L	x _	.	.	16E\LL	-ti-	.	.	.	.	.	.	16f#/LL	16f#'/LL
16G\JJ	.	.	.	16G\JJ	.	.	.	.	.	.	.	16f#/JJ	16f#'/JJ
8F#\L	.	4f#/	4a#\	8F#\L	-ae	4F#/	o-	4c#\	pro-	4a#\	-ris	8f#/	8f#'/
8E\J	x x	.	.	8E\J	.	.	.	.	.	.	.	8r	8r
!LO:LB:g=original	!	!	!	!	!	!	!	!LO:LB:g=original	!	!	!	!	!
8D/L	x 6	8d/L	8b\L	8D/	se-	8F#/L	-ra	8d\L	-no-	8b\L	o-	2r	2r
8C#/J	x 6\	8a#X/J	8cc#\	8C#/	-des	8G/J	.	8e\J	.	8cc#\J	.	.	.
4BB/	.	[4b\	8dd\	8BB/	sa-	8B\L	pro	8f#\	-bis	8dd\	-ra	.	.
.	.	.	8ff#\J	8BB/	-pi-	8d\J	.	8b\	pro	8ff#\	pro-	.	.
=19	=19	=19	=19	=19	=19	=19	=19	=19	=19	=19	=19	=19	=19
!	!	!	!	!LO:LB:g=original	!	!	!	!	!	!	!	!LO:LB:g=original	!LO:LB:g=original
4C#/	x 7	4b\]	8ee\L	4C#/	-en-	4G/	no-	4b\	-no-	2ee\	-no-	00r	00r
.	.	.	16ff#\L	.	.	.	.	.	.	.	.	.	.
.	.	.	16gg\JJ	.	.	.	.	.	.	.	.	.	.
4F#\	7 #	4a#X\	8ff#\L	4F#\	-ti-	4c#\	.	4a#X\	.	.	.	.	.
.	.	.	8ee\J	.	.	.	.	.	.	.	.	.	.
!	!	!	!	!	!	!LO:LB:g=original	!	!	!	!	!	!	!
8BB/	.	8b\L	8dd\L	8BB/	-ae	8F#/	-bis	8b\	-bis	8dd\	-bis	.	.
8r	.	8ff#\	8ff#|\	8r	.	8r	.	8r	.	8ff#\	o-	.	.
4r	.	8ff#\	8ff#|\	4r	.	4r	.	4r	.	8ff#\	-ra	.	.
.	.	8ff#\J	8ff#|\J	.	.	.	.	.	.	8ff#\	pro	.	.
=20	=20	=20	=20	=20	=20	=20	=20	=20	=20	=20	=20	=20	=20
!	!	!	!	!	!	!	!	!	!	!LO:LB:g=original	!	!	!
8r	.	[2ff#\	[2ff#\	8r	.	8r	.	8r	.	4ff#\	-no-	.	.
8A#X\L	6 3	.	.	8A#X\	o-	8c#\	pro	8f#\	pro	.	.	.	.
8B\	_ 3	.	.	16B\	-ra	8d\L	no-	4f#\	no-	4ff#\	-bis	.	.
.	.	.	.	16B\	pro-	.	.	.	.	.	.	.	.
8c#\J	_ 3	.	.	8c#\	-no-	8e\J	.	.	.	.	.	.	.
4B\	x x	8ff#\L]	8ff#\L]	4B\	-bis	8d\	-bis	8f#\	-bis	8ff#\	Vas	.	.
.	.	8ff#\	8ff#|\	.	.	8r	.	8r	.	8ff#\	Spi-	.	.
4r	.	8ff#\	8ff#|\	4r	.	4r	.	4r	.	8ff#\	-ri-	.	.
.	.	8ff#\J	8ff#|\J	.	.	.	.	.	.	8ff#\	-tu-	.	.
=21	=21	=21	=21	=21	=21	=21	=21	=21	=21	=21	=21	=21	=21
8r	.	[2ff#\	[2ff#\	8r	.	8r	.	8r	.	4ff#\	-a-	.	.
*	*	*	*	*	*	*	*ij	*	*ij	*	*	*	*
8B\L	x 3	.	.	8B\	pro-	8d\	pro-	8f#\	pro	.	.	.	.
8A#X\	x 3	.	.	8A#X\L	-no-	8c#\L	-no-	4f#\	no-	4ff#\	-le	.	.
8Gn\J	x 3	.	.	8Gn\J	.	8B\J	.	.	.	.	.	.	.
8F#\	.	8ff#\L]	8ff#\L]	8F#\	-bis	8A#X\	-bis	8f#\	-bis	4ff#\	o-	.	.
*	*	*	*	*	*	*	*Xij	*	*Xij	*	*	*	*
8r	.	8ff#\	8ff#|\	8r	.	8r	.	8r	.	.	.	.	.
4r	.	8ff#\	8ff#|\	4r	.	4r	.	4r	.	8ff#\	ra	.	.
.	.	8ff#\J	8ff#|\J	.	.	.	.	.	.	8ff#\	pro-	.	.
=22	=22	=22	=22	=22	=22	=22	=22	=22	=22	=22	=22	=22	=22
8r	.	2ee\	2gg\	8r	.	8B\	Vas	4g\	fae-	2ee\	-no-	.	.
8E\L	x n	.	.	4E\	Do-	8B\	in	.	.	.	.	.	.
8E\	.	.	.	.	.	8B\	Sig-	8g\	-de-	.	.	.	.
8E\J	.	.	.	8E\	-mus	16B\	-ne	8g\	-ris	.	.	.	.
.	.	.	.	.	.	16B\	de-	.	.	.	.	.	.
8r	.	2cc#\	2aa#X\	8r	.	8E/	-vo-	4a#X\	ar-	2ee\	-bis	.	.
8C#/L	x 6\	.	.	8.C#/	au-	8E/	-ti-	.	.	.	.	.	.
8C#/	.	.	.	.	.	8E/	-o-	4a#\	-ca	.	.	.	.
.	.	.	.	16C#/	-re-	.	.	.	.	.	.	.	.
8C#/J	.	.	.	8C#/	-a	8E/	-nis	.	.	.	.	.	.
=23	=23	=23	=23	=23	=23	=23	=23	=23	=23	=23	=23	=23	=23
!LO:TX:t=P:problem=brak taktu	!	!LO:TX:t=P:problem=brak taktu	!LO:TX:t=P:problem=brak taktu	!LO:TX:t=P:problem=brak taktu	!	!	!LO:LB:g=original	!LO:LB:g=original	!	!	!	!	!
1ryy	.	1ryy	1ryy	1ryy	.	8F#/L	o-	4b\	o-	8dd\L	Ro-	00r	00r
.	.	.	.	.	.	8G/J	.	.	.	8cc#\J	.	.	.
.	.	.	.	.	.	.	.	.	.	.	.	.	.
.	.	.	.	.	.	8F#/	-ra	8b\	-ra	8dd\L	-sa	.	.
.	.	.	.	.	.	8F#/	pro-	8a#X\	pro-	8cc#\J	.	.	.
.	.	.	.	.	.	8F#/	-no-	4b\	-no-	8dd\	mys-	.	.
!	!	!	!	!	!	!	!	!	!	!	!LO:MO:mod=-ti-	!	!
.	.	.	.	.	.	8F#/	-bis	.	.	8dd\	-tii-	.	.
.	.	.	.	.	.	8F#/	Stel-	4b\	-bis	4dd\	-ca	.	.
.	.	.	.	.	.	8F#/	-la	.	.	.	.	.	.
=24	=24	=24	=24	=24	=24	=24	=24	=24	=24	=24	=24	=24	=24
!LO:TX:t=P:problem=mixed beam	!	!LO:LB:g=original	!	!LO:LB:g=original	!	!	!	!	!	!	!	!	!
8BB/L	.	8dd\L	(16bb\LL	8BB/	o-	8F#/	ma-	2cc#\	Re-	4ee\	Tur-	.	.
.	.	.	16ff#\)	.	.	.	.	.	.	.	.	.	.
8E\	6 5	16ee\L	(16gg\	16E\	-ra	8F#/	-tu-	.	.	.	.	.	.
.	.	16cc#\JJ	16ee\JJ)	16E\	pro	.	.	.	.	.	.	.	.
8F#\	6 4	8b\L	8dd\L	8F#\L	no-	8F#/	-ti-	.	.	8ee\	-ris	.	.
8FF#/J	5 #	8a#X\J	8cc#\J	8FF#/J	.	8F#/	-na	.	.	8ee\	Da-	.	.
!	!	!	!LO:LB:g=original	!	!	!	!	!	!	!	!	!	!
8BB/L	.	16b\LL	16dd\LL	8BB/	-bis	4F#/	o-	4b\	-fu-	8dd\	-vi-	.	.
.	.	16ff#\	16ff#\	.	.	.	.	.	.	.	.	.	.
8BB/	.	16ff#\	16ff#\	8B\	Ja-	.	.	.	.	8dd\	-di-	.	.
.	.	16ff#\JJ	16ff#\JJ	.	.	.	.	.	.	.	.	.	.
8D#X/	x 6	16bb\LL	16bb\LL	8D#X\	-nu-	8d#X\	-ra	8b\	-gi-	4ff#\	-ca	.	.
.	.	32aa\L	32aa\L	.	.	.	.	.	.	.	.	.	.
.	.	32gg\JJJ	32gg\JJJ	.	.	.	.	.	.	.	.	.	.
8D#/J	x 5	16ff#\LL	16ff#\LL	8D#\	-a	8B\	pro	8a\	-um	.	.	.	.
.	.	32gg\L	32gg\L	.	.	.	.	.	.	.	.	.	.
.	.	32aa\JJJ	32aa\JJJ	.	.	.	.	.	.	.	.	.	.
=25	=25	=25	=25	=25	=25	=25	=25	=25	=25	=25	=25	=25	=25
!LO:LB:g=original	!	!	!	!	!	!	!	!	!	!	!	!	!
8E\L	.	16gg\LL	16gg\LL	8E\	Cae-	4B\	no-	8g\	pec-	4ee\	o-	.	.
.	.	16ee\	16ee\	.	.	.	.	.	.	.	.	.	.
8E\	.	16ee\	16ee\	8E\	-li	.	.	8g\	-ca-	.	.	.	.
.	.	16ee\JJ	16ee\JJ	.	.	.	.	.	.	.	.	.	.
8G\	x 6	16ee\LL	16ee\LL	4G\	o-	4B\	-bis	8g\	-to-	8ee\	-ra	.	.
.	.	32ff#\L	32ff#\L	.	.	.	.	.	.	.	.	.	.
.	.	32ee\JJJ	32ee\JJJ	.	.	.	.	.	.	.	.	.	.
8G\J	x 5	16dd\LL	16dd\LL	.	.	.	.	8g\	-rum	8dd\	pro-	.	.
.	.	32ee\L	32ee\L	.	.	.	.	.	.	.	.	.	.
.	.	32dd\JJJ	32dd\JJJ	.	.	.	.	.	.	.	.	.	.
!LO:TX:t=P:problem=mixed beam	!	!	!	!	!	!	!	!	!	!	!	!	!
8A\L	.	16cc#\LL	16cc#\LL	8A\	-ra	8A\	con-	4e\	o-	4cc#\	-no-	.	.
.	.	16ee\	16ee\	.	.	.	.	.	.	.	.	.	.
8A\	.	16ee\	16ee\	8A\	pro-	8A\	-so-	.	.	.	.	.	.
.	.	16ee\JJ	16ee\JJ	.	.	.	.	.	.	.	.	.	.
8C#/	x 6	16aa\LL	16aa\LL	8C#/	-no-	8c#\	-lat-	8a\	-ra	4ee\	-bis	.	.
.	.	32gg\L	32gg\L	.	.	.	.	.	.	.	.	.	.
.	.	32ff#\JJJ	32ff#\JJJ	.	.	.	.	.	.	.	.	.	.
8C#/J	x 5	16ee\LL	16ee\LL	8C#/	-bis	8c#\	-rix	8g\	pro-	.	.	.	.
.	.	32ff#\L	32ff#\L	.	.	.	.	.	.	.	.	.	.
.	.	32gg\JJJ	32gg\JJJ	.	.	.	.	.	.	.	.	.	.
=26	=26	=26	=26	=26	=26	=26	=26	=26	=26	=26	=26	=26	=26
!	!	!	!	!	!	!LO:LB:g=original	!	!	!	!	!	!	!
8D\L	.	16ff#\LL	16ff#\LL	4D\	au-	4A/	af-	4f#\	-no-	4dd\	Sa-	.	.
.	.	16dd\	16dd\	.	.	.	.	.	.	.	.	.	.
8D\	.	16dd\	16dd\	.	.	.	.	.	.	.	.	.	.
.	.	16dd\JJ	16dd\JJ	.	.	.	.	.	.	.	.	.	.
8F#\	x 6	16dd\LL	16dd\LL	8F#\	-xi-	4A/	-flic-	4f#\	-bis	8dd\L	-lus	.	.
.	.	32ee\L	32ee\L	.	.	.	.	.	.	.	.	.	.
.	.	32dd\JJJ	32dd\JJJ	.	.	.	.	.	.	.	.	.	.
8F#\J	x 5	16cc#\LL	16cc#\LL	8F#\	-li-	.	.	.	.	8cc#\J	.	.	.
.	.	32dd\L	32dd\L	.	.	.	.	.	.	.	.	.	.
.	.	32cc#\JJJ	32cc#\JJJ	.	.	.	.	.	.	.	.	.	.
!LO:TX:t=P:problem=mixed beam	!	!	!	!	!	!	!	!	!	!	!	!	!
8G\L	.	16b\LL	16b\LL	8G\	-um	4G/	-to-	4d\	Re-	4b\	in-	.	.
.	.	16dd\	16dd\	.	.	.	.	.	.	.	.	.	.
8G\	.	16dd\	16dd\	8G\	Chris-	.	.	.	.	.	.	.	.
.	.	16dd\JJ	16dd\JJ	.	.	.	.	.	.	.	.	.	.
8BB/	x 6	16gg\LL	16gg\LL	8BB/	-ti-	8B/	-rum	8g\	-gi-	4dd\	-fi-	.	.
.	.	32ff#\L	32ff#\L	.	.	.	.	.	.	.	.	.	.
.	.	32ee\JJJ	32ee\JJJ	.	.	.	.	.	.	.	.	.	.
8BB/J	x 5	16dd\LL	16dd\LL	8BB/	-a-	8B/	o-	8f#\	-na	.	.	.	.
.	.	32ee\L	32ee\L	.	.	.	.	.	.	.	.	.	.
.	.	32ff#\JJJ	32ff#\JJJ	.	.	.	.	.	.	.	.	.	.
=27	=27	=27	=27	=27	=27	=27	=27	=27	=27	=27	=27	=27	=27
!	!	!LO:LB:g=original	!	!LO:LB:g=original	!	!	!	!LO:LB:g=original	!	!	!	!	!
8C#/L	.	16ee\LL	16ee\LL	8C#/	-no-	4G/	-ra	4e\	Pa-	4cc#\	-mo-	0r	0r
.	.	16cc#\	16cc#\	.	.	.	.	.	.	.	.	.	.
8C#/	.	16cc#\	16cc#\	8C#/	-rum	.	.	.	.	.	.	.	.
.	.	16cc#\JJ	16cc#\JJ	.	.	.	.	.	.	.	.	.	.
8E/	x 6	16cc#\LL	16cc#\LL	4E\	o-	4G/	pro-	8e\	-tri-	8cc#\L	-rum	.	.
.	.	32dd\L	32dd\L	.	.	.	.	.	.	.	.	.	.
.	.	32cc#\JJJ	32cc#\JJJ	.	.	.	.	.	.	.	.	.	.
8E/J	x 5	16b\LL	16b\LL	.	.	.	.	8e\	-ar-	8b\J	.	.	.
.	.	32cc#\L	32cc#\L	.	.	.	.	.	.	.	.	.	.
.	.	32b\JJJ	32b\JJJ	.	.	.	.	.	.	.	.	.	.
!LO:TX:t=P:problem=mixed beam	!	!	!LO:LB:g=original	!	!	!	!	!	!	!	!	!	!
8F#\L	.	16a\LL	16a\LL	8F#\	-ra	8F#/	-no-	8c#\	-cha-	4a\	o-	.	.
.	.	16cc#\	16cc#\	.	.	.	.	.	.	.	.	.	.
8F#\	.	16cc#\	16cc#\	8F#\	pro	8F#/	-bis	8c#\	-rum	.	.	.	.
.	.	16cc#\JJ	16cc#\JJ	.	.	.	.	.	.	.	.	.	.
8AA/	x 6	16ff#\LL	16ff#\LL	8AA/	no-	4A\	Re	8f#\L	Re-	8cc#\	-ra	.	.
.	.	32ee\L	32ee\L	.	.	.	.	.	.	.	.	.	.
.	.	32dd\JJJ	32dd\JJJ	.	.	.	.	.	.	.	.	.	.
8AA/J	x 5	16cc#\LL	16cc#\LL	8AA/	-bis	.	.	8e\J	.	8cc#\	pro	.	.
.	.	32dd\L	32dd\L	.	.	.	.	.	.	.	.	.	.
.	.	32ee\JJJ	32ee\JJJ	.	.	.	.	.	.	.	.	.	.
=28	=28	=28	=28	=28	=28	=28	=28	=28	=28	=28	=28	=28	=28
!	!	!	!	!	!	!	!	!	!	!LO:LB:g=original	!	!	!
8BB/L	.	16dd\LL	16dd\LL	4BB/	Re-	4F#/	-gi-	4d\	-gi-	4b\	no-	.	.
.	.	16b\	16b\	.	.	.	.	.	.	.	.	.	.
8BB/	.	16b\	16b\	.	.	.	.	.	.	.	.	.	.
.	.	16b\JJ	16b\JJ	.	.	.	.	.	.	.	.	.	.
8D/	x 6	16b\LL	16b\LL	8D/	-gi-	8F#/	-na	4d\	-na	8b\L	-bis	.	.
.	.	32cc#\L	32cc#\L	.	.	.	.	.	.	.	.	.	.
.	.	32b\JJJ	32b\JJJ	.	.	.	.	.	.	.	.	.	.
8D/J	x 5	16a\LL	16a\LL	8D/	-na	8F#/	A-	.	.	8a\J	.	.	.
.	.	32b\L	32b\L	.	.	.	.	.	.	.	.	.	.
.	.	32a\JJJ	32a\JJJ	.	.	.	.	.	.	.	.	.	.
!LO:TX:t=P:problem=mixed beam	!	!	!	!	!	!	!	!	!	!	!	!	!
8E\L	.	16g\LL	16g\LL	8E/	Ma-	4E/	-po-	4B\	Pro-	4g\	Re-	.	.
.	.	16b\	16b\	.	.	.	.	.	.	.	.	.	.
8E\	.	16b\	16b\	8E/	-rtÿ-	.	.	.	.	.	.	.	.
.	.	16b\JJ	16b\JJ	.	.	.	.	.	.	.	.	.	.
8GG/	x 6	16ee\LL	16ee\LL	8GG/	-rum	4G/	-sto-	8e\L	-phe-	8b\	-gi-	.	.
.	.	32dd\L	32dd\L	.	.	.	.	.	.	.	.	.	.
.	.	32cc#\JJJ	32cc#\JJJ	.	.	.	.	.	.	.	.	.	.
8GG/J	x 5	16b\LL	16b\LL	8GG/	o-	.	.	8d\J	.	8b\	-na	.	.
.	.	32cc#\L	32cc#\L	.	.	.	.	.	.	.	.	.	.
.	.	32dd\JJJ	32dd\JJJ	.	.	.	.	.	.	.	.	.	.
=29	=29	=29	=29	=29	=29	=29	=29	=29	=29	=29	=29	=29	=29
!	!	!	!	!	!	!	!	!	!	!	!	!LO:TX:t=P:problem=brak taktu	!LO:TX:t=P:problem=brak taktu
8AA/L	.	16cc#\LL	16cc#\LL	8AA/	-ra	4E/	-lo-	4c#\	-ta-	8a\	An-	1ryy	1ryy
.	.	16a\	16a\	.	.	.	.	.	.	.	.	.	.
8AA/	.	16a\	16a\	8AA/	pro	.	.	.	.	8a\	-ge-	.	.
.	.	16a\JJ	16a\JJ	.	.	.	.	.	.	.	.	.	.
8C#/	x 6	16a/LL	16a/LL	4C#/	no-	4e\	.	4a\	.	8a\L	-lo-	.	.
.	.	32b/L	32b/L	.	.	.	.	.	.	.	.	.	.
.	.	32a/JJJ	32a/JJJ	.	.	.	.	.	.	.	.	.	.
8C#/J	x 5	16g/LL	16g/LL	.	.	.	.	.	.	8g\J	.	.	.
.	.	32a/L	32a/L	.	.	.	.	.	.	.	.	.	.
.	.	32g/JJJ	32g/JJJ	.	.	.	.	.	.	.	.	.	.
8D/	.	16f#/LL	16f#/LL	8D\	-bis.	8d\	-rum	8a\	-rum	8f#\	-rum	.	.
.	.	16a/	16a/	.	.	.	.	.	.	.	.	.	.
8r	.	16b/	16b/	8r	.	8r	.	8r	.	8r	.	.	.
.	.	16cc#/JJ	16cc#/JJ	.	.	.	.	.	.	.	.	.	.
4r	.	16dd\LL	16dd\LL	4r	.	4r	.	4r	.	4r	.	.	.
.	.	16ee\	16ee\	.	.	.	.	.	.	.	.	.	.
.	.	16ff#\	16ff#\	.	.	.	.	.	.	.	.	.	.
.	.	16gg\JJ	16gg\JJ	.	.	.	.	.	.	.	.	.	.
=30	=30	=30	=30	=30	=30	=30	=30	=30	=30	=30	=30	=30	=30
!LO:LB:g=original	!	!LO:LB:g=original	!	!LO:LB:g=original	!	!LO:LB:g=original	!	!	!	!	!	!	!
8D\L	.	16aa\LL	16aa\LL	4D\	Ag-	4d\	o-	4a\	o-	4ff#\	Re-	2r	2r
.	.	16aa\	16aa\	.	.	.	.	.	.	.	.	.	.
8D\	.	16ff#\	16ff#\	.	.	.	.	.	.	.	.	.	.
.	.	16ff#\JJ	16ff#\JJ	.	.	.	.	.	.	.	.	.	.
8F#\	.	16dd\LL	16dd\LL	4F#\	-nus	8d\	-ra	8a\	-ra	8ff#\	-gi-	.	.
.	.	16dd\	16dd\	.	.	.	.	.	.	.	.	.	.
8F#\J	.	16a\	16a\	.	.	8d\	pro	8a\	pro	8ff#\	-na	.	.
.	.	16a\JJ	16a\JJ	.	.	.	.	.	.	.	.	.	.
4G\	x 6	8g/L	8b\L	4G\	De-	8B\	no-	8g\	no-	8ee\	con-	4r	4r
.	.	16b/L	16gg\L	.	.	8B\	-bis	8g\	-bis	8ee\	-feſ-	.	.
.	.	16g/JJ	16ee\JJ	.	.	.	.	.	.	.	.	.	.
!LO:TX:t=P:problem=mixed beam	!	!	!	!	!	!	!	!	!	!	!	!	!
8A\L	6 4	16a/LL	16ff#\LL	8A\	-i	4A\	Re-	8f#\L	Re-	8dd\	-so-	8dd\L	8ff#\L
.	.	16f#/	16dd\	.	.	.	.	.	.	.	.	.	.
8AA/J	5	16g/	16ee\	8AA/	qui	.	.	8e\J	.	8cc#\	-rum	8a\J	8ee\J
.	.	16e/JJ	16cc#\JJ	.	.	.	.	.	.	.	.	.	.
=31	=31	=31	=31	=31	=31	=31	=31	=31	=31	=31	=31	=31	=31
!	!	!	!LO:LB:g=original	!	!	!	!	!LO:LB:g=original	!	!	!	!	!
4D\	.	16f#/LL	16dd\LL	8D\	tol-	4A\	-gi-	8f#\	-gi-	4dd\	o-	16f#/LL	16dd|>/LL
.	.	16a/	16a\	.	.	.	.	.	.	.	.	32A'/L	32a|>/L
.	.	.	.	.	.	.	.	.	.	.	.	32A'/JJJ	32a|>/JJJ
.	.	16a/	16a\	8D\	-lis	.	.	8f#\	-na	.	.	16A'/	16b|>/
.	.	16a/JJ	16a\JJ	.	.	.	.	.	.	.	.	16r	16r
*	*	*tremolo	*	*	*	*	*	*	*	*	*	*	*
!	!	!	!LO:TX:t=P:problem=mixed beam	!	!	!	!	!	!	!	!	!	!
8r	.	16a/LL	16ff#\LL	8r	.	8d\	na	8a\	Vir-	8ff#\	-ra	4r	4r
.	.	16a/	16a/	.	.	.	.	.	.	.	.	.	.
*	*	*	*	*	*	*	*	*	*	*	*	*	*
8D\	.	16a/	16aa\	8D\	qui	8f#\	(Sa)n-	8a\	-gi-	8ff#\	pro	.	.
.	.	16a/JJ	16a/JJ	.	.	.	.	.	.	.	.	.	.
!	!	!	!LO:TX:t=P:problem=mixed beam	!	!	!	!	!	!	!	!	!	!
4E\	x 6	16a/LL	16gg\LL	8E\	tol-	8e\	-cto-	8a\	-num	4gg\	no-	16r	16r
.	.	16a/	16a/	.	.	.	.	.	.	.	.	32A'/LLL	32a|>/LLL
.	.	.	.	.	.	.	.	.	.	.	.	32A'/JJJ	32a|>/JJJ
.	.	16a/	16a/	8E\	-lis	8e\	-ru(m)	8a\	o-	.	.	16A'/	16a|>/
*	*	*	*	*	*	*	*	*	*	*	*	*	*
.	.	16a/	16a\JJ	.	.	.	.	.	.	.	.	16r	16r
!	!	!	!LO:TX:t=P:problem=mixed beam	!	!	!	!	!	!	!	!	!	!
8r	.	16a/	16ee\LL	8r	.	8e\	om-	8a\	-ra	4gg\	-bis	4r	4r
.	.	16a/	16a/	.	.	.	.	.	.	.	.	.	.
8C#/	.	16a/	16gg\	8C#/	pec-	16e\	-ni-	8a\	pro	.	.	.	.
.	.	16a/JJ	16a/JJ	.	.	16e\	-um	.	.	.	.	.	.
=32	=32	=32	=32	=32	=32	=32	=32	=32	=32	=32	=32	=32	=32
!	!	!	!LO:TX:t=P:problem=mixed beam	!	!	!	!	!	!	!LO:LB:g=original	!	!	!
4D\	.	16a/LL	16ff#\LL	8D/	-ca-	4d\	o-	4a\	no-	4ff#\	Ag-	16r	16r
.	.	16a/	16a/	.	.	.	.	.	.	.	.	32A'/LLL	32a|>/LLL
.	.	.	.	.	.	.	.	.	.	.	.	32A'/JJJ	32a|>/JJJ
.	.	16a/	16a/	8D/	-ta	.	.	.	.	.	.	16A'/	16a|>/
.	.	16a/	16a/JJ	.	.	.	.	.	.	.	.	16r	16r
!	!	!	!LO:TX:t=P:problem=mixed beam	!	!	!	!	!	!	!	!	!	!
8r	.	16a/	16ff#\LL	8r	.	8d\	-ra	4a\	-bis	4ff#\	-nus	4r	4r
.	.	16a/	16a/	.	.	.	.	.	.	.	.	.	.
*	*	*	*	*	*ij	*	*	*	*	*	*	*	*
8D\	x 6	16a/	16aa\	8D\	pec-	8f#\	pro-	.	.	.	.	.	.
.	.	16a/JJ	16a/JJ	.	.	.	.	.	.	.	.	.	.
!	!	!	!LO:TX:t=P:problem=mixed beam	!	!	!	!	!	!	!	!	!	!
4E\	.	16a/LL	16gg\LL	8E\	-ca-	4e\	-no-	4a\	A-	4gg\	De-	16r	16r
.	.	16a/	16a/	.	.	.	.	.	.	.	.	32A/LLL	32a'>/LLL
.	.	.	.	.	.	.	.	.	.	.	.	32A/JJJ	32a'>/JJJ
.	.	16a/	16a/	8E\	-ta	.	.	.	.	.	.	16A/	16a|>/
*	*	*	*	*	*Xij	*	*	*	*	*	*	*	*
.	.	16a/	16a/JJ	.	.	.	.	.	.	.	.	16r	16r
!	!	!	!LO:TX:t=P:problem=mixed beam	!	!	!	!	!	!	!	!	!	!
8r	.	16a/	16ee\LL	8r	.	4e\	-bis	4a\	-gnus	8gg\	-i	4r	4r
.	.	16a/	16a/	.	.	.	.	.	.	.	.	.	.
8C#/	.	16a/	16gg\	8C#/	pec-	.	.	.	.	8gg\	qui	.	.
.	.	16a/JJ	16a/JJ	.	.	.	.	.	.	.	.	.	.
*	*	*Xtremolo	*	*	*	*	*	*	*	*	*	*	*
=33	=33	=33	=33	=33	=33	=33	=33	=33	=33	=33	=33	=33	=33
!	!	!	!	!LO:LB:g=original	!	!	!	!	!	!	!	!	!
8D\L	.	16ff#\LL	16ff#\LL	8D\L	-ca-	8d\L	Ag-	8a\L	De-	8ff#\L	tol-	2r	2r
.	.	16aa\	16aa\	.	.	.	.	.	.	.	.	.	.
8E\	x 6	16cc#\	16cc#\	8E\J	.	8c#\J	.	8g\J	.	8ee\J	.	.	.
.	.	16ee\JJ	16ee\JJ	.	.	.	.	.	.	.	.	.	.
!	!	!LO:TX:t=P:problem=mixed beam	!LO:TX:t=P:problem=mixed beam	!	!	!	!	!	!	!	!	!	!
8F#\	x 6	16dd\LL	16dd\LL	8F#\L	-ta	4A\	-nus	8f#\	-i	8dd\	-lis	.	.
.	.	16ff#\	16ff#\	.	.	.	.	.	.	.	.	.	.
8D\J	.	16a/	16a/	8D\J	.	.	.	8f#\	qui	8dd\	pec-	.	.
.	.	16ccn/JJ	16ccn\JJ	.	.	.	.	.	.	.	.	.	.
!	!	!	!	!	!	!LO:LB:g=original	!	!	!	!	!	!	!
4G\	.	8b/L	8b\L	4G\	mun-	4B\	De-	4g\	tol-	8ee\	-ca-	4r	4r
.	.	16b/L	16gg\L	.	.	.	.	.	.	8ee\	-ta	.	.
.	.	16g/JJ	16ee\JJ	.	.	.	.	.	.	.	.	.	.
!LO:TX:t=P:problem=mixed beam	!	!	!	!LO:TX:t=P:problem=mixed beam	!	!	!	!	!	!	!	!	!
8A\L	.	16a/LL	16ff#\LL	8A\L	.	8A\	-i	8f#\	-lis	8dd\L	mun-	8dd\L	8ff#\L
.	.	16f#/	16dd\	.	.	.	.	.	.	.	.	.	.
8AA/J	.	16g/	16ee\	8AA/J	.	8A\	qui	8e\	pec-	8cc#\J	.	8a\J	8ee\J
!	!	!	!LO:TX:t=P:problem=♯ above	!	!	!	!	!	!	!	!	!	!
.	.	16e/JJ	16cc#X\JJ	.	.	.	.	.	.	.	.	.	.
=34	=34	=34	=34	=34	=34	=34	=34	=34	=34	=34	=34	=34	=34
!	!	!	!	!	!	!	!	!	!	!	!	!LO:LB:g=original	!LO:LB:g=original
!	!	!	!	!	!	!	!	!	!	!	!	!	!LO:TX:t=P:problem=mixed beam
4D\	.	4f#/	4dd\	2D\	-di	4A\	tol-	4f#\	-ca-	4dd\	-di	16f#'/LL	16dd|>/LL
.	.	.	.	.	.	.	.	.	.	.	.	16d'/	16d|>/
.	.	.	.	.	.	.	.	.	.	.	.	16d'/	16d|>/
.	.	.	.	.	.	.	.	.	.	.	.	16d'/JJ	16d|>/JJ
4D\	n7 3	4f#/	4ccn\	.	.	8F#/	-lis	4a\	-ta	8ccn\	par-	16d'/LL	16d|>/LL
.	.	.	.	.	.	.	.	.	.	.	.	16d'/	16d|>/
.	.	.	.	.	.	8F#/	pec-	.	.	8cc\	-ce	16d'/	16d|>/
.	.	.	.	.	.	.	.	.	.	.	.	16d'/JJ	16d|>/JJ
*	*	*	*	*	*	*	*	*	*	*	*	*tremolo	*
!	!	!	!	!	!	!	!	!LO:LB:g=original	!	!	!	!	!
4D\	6 4	4g/	8b\L	4D\	mi-	4D/	-ca-	4g\	mun-	8b\	no-	16d/LL	16d|>/LL
.	.	.	.	.	.	.	.	.	.	.	.	16d/	16d|>/
.	.	.	8b\J	.	.	.	.	.	.	8b\	-bis	16d/	16d|>/
.	.	.	.	.	.	.	.	.	.	.	.	16d/	16d|>/JJ
.	.	.	8qdd/	.	.	.	.	.	.	.	.	.	.
4D\	#7 3	8e/L	8cc#X\L	4D\	-se-	4G/	-ta	4e\	-di	8cc#X\	Do-	16d/	16d'>/LL
.	.	.	.	.	.	.	.	.	.	.	.	16d/	16d'>/
.	.	16d/L	16b\L	.	.	.	.	.	.	8cc#\	-mi-	16d/	16d'>/
.	.	16e/JJ	16cc#\JJ	.	.	.	.	.	.	.	.	16d/JJ	16d'>/JJ
35	35	35	35	35	35	35	35	35	35	35	35	35	35
*	*	*	*	*	*	*	*	*	*	*	*	*	*tremolo
!	!	!LO:LB:g=original	!	!	!	!	!	!	!	!LO:LB:g=original	!	!	!
4D\	x 8	4f#/	4dd\	4D\	-re-	4A/	mun-	8f#\	e-	4dd\	-ne	16d/LL	16d'>/LL
.	.	.	.	.	.	.	.	.	.	.	.	16d/	16d'/
.	.	.	.	.	.	.	.	8f#\	-xau-	.	.	16d/	16d'/
.	.	.	.	.	.	.	.	.	.	.	.	16d/	16d'/
4D\	x n7	4f#/	4ccn\	4D\	-re	4F#/	-di	8a\	-di	8ccn\	mi-	16d/	16d'/
.	.	.	.	.	.	.	.	.	.	.	.	16d/	16d'/
.	.	.	.	.	.	.	.	8a\	nos	8cc\	-se-	16d/	16d'/
.	.	.	.	.	.	.	.	.	.	.	.	16d/JJ	16d'/JJ
!LO:LB:g=original	!	!	!	!	!	!	!	!	!	!	!	!	!
4G\	.	4g/	8b\L	4G\	no-	4D/	mi-	8g\	Do-	8b\	-re-	16d/LL	16d'>/LL
.	.	.	.	.	.	.	.	.	.	.	.	16d/	16d'/
.	.	.	16gg\L	.	.	.	.	16g\	-mi-	8b\	-re	16d/	16d'/
.	.	.	16ee\JJ	.	.	.	.	16g\	-ne	.	.	16d/	16d'/
!LO:TX:t=P:problem=mixed beam	!	!	!	!	!	!	!	!	!	!	!	!	!
8A\L	.	4e/	16ee\LL	4A\	.	4A/	-se-	8e\	mi-	4cc#X\	no-	16d/	16d'/
.	.	.	16cc#X\	.	.	.	.	.	.	.	.	16d/	16d'/
8AA/J	.	.	16aa\	.	.	.	.	8e\	-se-	.	.	16d/	16d'/
.	.	.	16cc#\JJ	.	.	.	.	.	.	.	.	16d/JJ	16d'/JJ
*	*	*	*	*	*	*	*	*	*	*	*	*	*Xtremolo
*	*	*	*	*	*	*	*	*	*	*	*	*Xtremolo	*
36	36	36	36	36	36	36	36	36	36	36	36	36	36
!	!	!LO:TX:t=P:problem=mixed beam	!	!	!	!	!	!	!	!	!	!LO:TX:t=P:problem=mixed beam	!
8D\L	.	8f#/L	8dd\L	8D\	-bis	8A\	-re-	8f#\	-re-	8dd\	-bis	8f#/L	8dd\L
8d\J	.	8dd\J	8ff#\J	8d\	no-	8d\	-re	8a\	-re	8ff#\	no-	8dd\J	8ff#\J
!LO:TX:t=P:problem=mixed beam	!	!	!	!	!	!	!	!	!	!	!	!	!
8A\L	.	8a\L 8ee	8ee\L	4A\	.	4c#\	no-	4a\	no-	4ee\	.	4a/	4ee\
8AA/J	.	8a\J 8ee	16dd\L	.	.	.	.	.	.	.	.	.	.
.	.	.	16ee\JJ	.	.	.	.	.	.	.	.	.	.
4D\	.	4a\ 4ff#	4d/ 4a 4ff#	4D\	-bis.	4d\	-bis	4a\	-bis.	4ff#\	-bis.	4dd\	4ff#\
4r	.	4r	4r	4r	.	4r	.	4r	.	4r	.	4r	4r
!	!	!	!	!	!	!	!	!	!	!	!	!LO:TX:b:t=V&colon; Cittiſ Salve &colon;	!LO:TX:b:t=V&colon; citto Salve Reg&colon;
==35	==35	==35	==35	==35	==35	==35	==35	==35	==35	==35	==35	==35	==35
*-	*-	*-	*-	*-	*-	*-	*-	*-	*-	*-	*-	*-	*-
!!!system-decoration: [(s1,s2)][(s3,s4,s5,s6)][(s7,s8)](s9)
!!!RDF**kern: | = vertical stroke
!!!RDF**kern: > = above
!!!RDF**kern: < = below
!!!ENC: Tomasz Grochalski
!!!END: 2020-08-27
!!!ENC: Krzysztof Stępień
!!!END: 2021-10-29
